X:1
T:In manus tuas
T:Ivo de Vento
T:In manus tuas
T:Copyright © 2016 by The Choral Public Domain Library. Edition may be freely distributed, duplicated, performed or recorded.
T:Copyright © 2016 by The Choral Public Domain Library. Edition may be freely distributed, duplicated, performed or recorded.
T:Copyright © 2016 by The Choral Public Domain Library. Edition may be freely distributed, duplicated, performed or recorded.
C:Ivo de Vento
Z:Copyright © 2016 by The Choral Public Domain Library. Edition may be freely distributed, duplicated, performed or recorded.
%%score [ 1 2 3 4 ]
L:1/8
Q:1/2=72
M:4/2
K:C
V:1 treble nm="Soprano" snm="S."
V:2 treble nm="Alto" snm="A."
V:3 treble-8 transpose=-12 nm="Tenor" snm="T."
V:4 bass nm="Bass" snm="B."
V:1
 z8 G8 | (A8 c8) | c4 c8 B4 | (E6 F2 G4) G4 | C8 z4 F4 | F4 A4 (G2 E2 A4-) | A4 G4 (A4 G2 F2 | %7
w: In|ma- *|nus tu- as|Do- * * mi-|ne, in|ma- nus tu- * *|* as Do- * *|
 G2 D2 G8) A4 | B16- | B16 | z16 | z16 | z8 G8 | E8 F8 | D6 D2 G4 A4 | F8 z4 F4- | F2 E2 E4 A8 | %17
w: * * * mi-|ne|_|||com|men- do|spi- ri- tum me-|um, spi-|* ri- tum me-|
 D16 |] %18
w: um.|
V:2
 C8 E4 E4 | F4 D4 C2 B,2 A,2 G,2 | F,2 G,2 A,2 B,2 C2 D2 E2 F2 | G2 G,2 C8 B,4 | A,4 C4 G,4 A,4 | %5
w: In ma- nus|tu- as Do- * * *||* * * mi-|ne, in ma- nus|
 (A,2 B,2 C2 D2 E4) E4 | F4 E2 D2 C2 A,2 D4- | D4 D4 E8 | z4 G8 G,4 | G,16 | D8 B,8 | C8 A,6 A,2 | %12
w: tu- * * * * as|Do- * * * * *|* mi- ne,|Do- mi-|ne|com- men-|do spi- ri-|
 D4 (B,6 G,2 B,4) | C4 C4 A,4 A,4 | G,6 G,2 G,4 C4- | (C2 A,2 D4) A,8 | C16 | B,16 |] %18
w: tum me- * *|um, com- men- do|spi- ri- tum me-|* * * um,|me-|um.|
V:3
 z16 | z16 | z16 | z8 G8 | (A8 c8) | c8 c8 | (B8 A8) | B8 c8 | d16- | d16 | z16 | z16 | z16 | %13
w: |||In|ma- *|nus tu-|as _|Do- mi-|ne|_||||
 z8 d8 | B8 c8 | A6 A2 F4 A4- | A2 G2 G6 ^FE F4 | G16 |] %18
w: com|men- do|spi- ri- tum me-||um.|
V:4
 z16 | z16 | z16 | C,8 E,4 E,4 | F,8 E,4 F,4- | F,4 F,4 C,4 C,4 | D,4 E,4 F,4 D,4 | (G,8 C,6) C,2 | %8
w: |||In ma- nus|tu- as Do-|* mi- ne, in|ma- nus tu- as|Do- * mi-|
 G,,16- | G,,16 | z4 G,8 E,4- | E,4 F,8 D,4- | D,2 D,2 G,4 (E,8 | A,8) D,8 | z4 G,4 E,4 F,4- | %15
w: ne|_|com men-|* do spi-|* ri- tum me-|* um,|com- men- do|
 F,4 D,6 D,2 D,4 | (C,6 B,,2 A,,8) | G,,16 |] %18
w: _ spi- ri- tum|me- * *|um.|

